svg/下载助手.svg

<svg width="48" height="48" viewBox="0 0 48 48" fill="none" xmlns="http://www.w3.org/2000/svg">
<path d="M0 10C0 4.47715 4.47715 0 10 0H38C43.5229 0 48 4.47715 48 10V38C48 43.5229 43.5228 48 38 48H10C4.47715 48 0 43.5228 0 38V10Z" fill="url(#paint0_linear_1_416)"/>
<path opacity="0.7" d="M26.5502 20.576C26.329 20.2732 25.9039 20.2357 25.6329 20.4809L24.3701 21.6268V18.0114C24.3701 17.6662 24.0916 17.3859 23.7486 17.3859C23.4055 17.3859 23.1271 17.6662 23.1271 18.0114V21.6393L21.8667 20.4834C21.5982 20.2357 21.1706 20.2732 20.9469 20.5735C20.753 20.8362 20.8152 21.2115 21.0538 21.4317L23.1917 23.3933C23.5 23.676 23.9673 23.676 24.2781 23.3958L26.4384 21.4342C26.6795 21.214 26.7416 20.8412 26.5502 20.5785V20.576Z" fill="#2F323D"/>
<path opacity="0.7" d="M27.1853 26.3267H20.6987C20.3432 26.3267 20.0547 26.0655 20.0547 25.7436C20.0547 25.4217 20.3432 25.1605 20.6987 25.1605H27.1853C27.5408 25.1605 27.8293 25.4217 27.8293 25.7436C27.8293 26.0655 27.5408 26.3267 27.1853 26.3267Z" fill="#2F323D"/>
<path d="M30.4932 10C31.5976 10.0001 32.4932 10.8955 32.4932 12V35C32.4931 36.1044 31.5976 36.9999 30.4932 37H17C15.8955 37 15.0001 36.1045 15 35V12C15 10.8954 15.8954 10 17 10H30.4932ZM18.2812 12.2812C17.7291 12.2812 17.2815 12.7292 17.2812 13.2812V31.0566C17.2815 31.6087 17.7291 32.0566 18.2812 32.0566H29.2109C29.763 32.0566 30.2107 31.6087 30.2109 31.0566V13.2812C30.2107 12.7292 29.763 12.2813 29.2109 12.2812H18.2812Z" fill="url(#paint1_linear_1_416)"/>
<path d="M30.4932 10L30.4932 9.8H30.4932V10ZM32.4932 12H32.6932H32.4932ZM32.4932 35L32.6932 35V35H32.4932ZM30.4932 37V37.2H30.4932L30.4932 37ZM17 37V37.2V37.2V37ZM15 35H14.8V35L15 35ZM15 12H14.8V12H15ZM17.2812 13.2812L17.0812 13.2812V13.2812H17.2812ZM17.2812 31.0566H17.0812V31.0567L17.2812 31.0566ZM29.2109 32.0566V32.2566H29.211L29.2109 32.0566ZM30.2109 31.0566L30.4109 31.0567V31.0566H30.2109ZM30.2109 13.2812H30.4109V13.2812L30.2109 13.2812ZM29.2109 12.2812L29.211 12.0812H29.2109V12.2812ZM30.4932 10L30.4931 10.2C31.4872 10.2001 32.2932 11.006 32.2932 12H32.4932H32.6932C32.6932 10.785 31.708 9.80016 30.4932 9.8L30.4932 10ZM32.4932 12H32.2932V35H32.4932H32.6932V12H32.4932ZM32.4932 35L32.2932 35C32.2931 35.994 31.4871 36.7999 30.4931 36.8L30.4932 37L30.4932 37.2C31.708 37.1998 32.6931 36.2149 32.6932 35L32.4932 35ZM30.4932 37V36.8H17V37V37.2H30.4932V37ZM17 37V36.8C16.0059 36.8 15.2001 35.9941 15.2 35L15 35L14.8 35C14.8001 36.215 15.785 37.2 17 37.2V37ZM15 35H15.2V12H15H14.8V35H15ZM15 12H15.2C15.2 11.0059 16.0059 10.2 17 10.2V10V9.8C15.785 9.8 14.8 10.785 14.8 12H15ZM17 10V10.2H30.4932V10V9.8H17V10ZM18.2812 12.2812V12.0812C17.6186 12.0812 17.0815 12.6188 17.0812 13.2812L17.2812 13.2812L17.4813 13.2813C17.4814 12.8396 17.8396 12.4813 18.2812 12.4813V12.2812ZM17.2812 13.2812H17.0812V31.0566H17.2812H17.4813V13.2812H17.2812ZM17.2812 31.0566L17.0812 31.0567C17.0815 31.7191 17.6186 32.2566 18.2812 32.2566V32.0566V31.8566C17.8396 31.8566 17.4814 31.4983 17.4813 31.0566L17.2812 31.0566ZM18.2812 32.0566V32.2566H29.2109V32.0566V31.8566H18.2812V32.0566ZM29.2109 32.0566L29.211 32.2566C29.8735 32.2565 30.4107 31.7191 30.4109 31.0567L30.2109 31.0566L30.0109 31.0566C30.0108 31.4983 29.6525 31.8566 29.2109 31.8566L29.2109 32.0566ZM30.2109 31.0566H30.4109V13.2812H30.2109H30.0109V31.0566H30.2109ZM30.2109 13.2812L30.4109 13.2812C30.4107 12.6188 29.8735 12.0814 29.211 12.0812L29.2109 12.2812L29.2109 12.4813C29.6525 12.4813 30.0108 12.8396 30.0109 13.2813L30.2109 13.2812ZM29.2109 12.2812V12.0812H18.2812V12.2812V12.4813H29.2109V12.2812Z" fill="#CECECE"/>
<defs>
<linearGradient id="paint0_linear_1_416" x1="23.7" y1="47.64" x2="24.304" y2="-0.0640005" gradientUnits="userSpaceOnUse">
<stop stop-color="#D4D4D2"/>
<stop offset="1" stop-color="#E6E6E5"/>
</linearGradient>
<linearGradient id="paint1_linear_1_416" x1="23.7466" y1="10" x2="23.7466" y2="37" gradientUnits="userSpaceOnUse">
<stop stop-color="#979797"/>
<stop offset="1" stop-color="#1C1C1C"/>
</linearGradient>
</defs>
</svg>

<svg viewBox="0 0 48 48" fill="currentColor"><path fill="currentColor" d="M0 10C0 4.477 4.477 0 10 0h28c5.523 0 10 4.477 10 10v28c0 5.523-4.477 10-10 10H10C4.477 48 0 43.523 0 38z"/><path fill="currentColor" d="M26.55 20.576a.62.62 0 0 0-.917-.095l-1.263 1.146V18.01a.624.624 0 0 0-.621-.625.624.624 0 0 0-.622.625v3.628l-1.26-1.156a.62.62 0 0 0-.92.09c-.194.263-.132.639.107.859l2.138 1.961a.804.804 0 0 0 1.086.003l2.16-1.962c.242-.22.304-.593.112-.856zM27.185 26.327H20.7c-.356 0-.644-.262-.644-.583 0-.322.288-.584.644-.584h6.486c.356 0 .644.262.644.584s-.288.583-.644.583" opacity=".7"/><path fill="currentColor" d="M30.493 10a2 2 0 0 1 2 2v23a2 2 0 0 1-2 2H17a2 2 0 0 1-2-2V12a2 2 0 0 1 2-2zm-12.212 2.281a1 1 0 0 0-1 1v17.776a1 1 0 0 0 1 1h10.93a1 1 0 0 0 1-1V13.28a1 1 0 0 0-1-1z"/><path fill="currentColor" d="M30.493 10v-.2zm2 2h.2zm0 23h.2zm-2 2v.2zM17 37v.2zm-2-2h-.2zm0-23h-.2zm2.281 1.281h-.2zm0 17.776h-.2zm11.93 1v.2zm1-1h.2zm0-17.776h.2zm-1-1v-.2zM30.493 10v.2a1.8 1.8 0 0 1 1.8 1.8h.4a2.2 2.2 0 0 0-2.2-2.2zm2 2h-.2v23h.4V12zm0 23h-.2a1.8 1.8 0 0 1-1.8 1.8v.4a2.2 2.2 0 0 0 2.2-2.2zm-2 2v-.2H17v.4h13.493zM17 37v-.2a1.8 1.8 0 0 1-1.8-1.8h-.4a2.2 2.2 0 0 0 2.2 2.2zm-2-2h.2V12h-.4v23zm0-23h.2a1.8 1.8 0 0 1 1.8-1.8v-.4a2.2 2.2 0 0 0-2.2 2.2zm2-2v.2h13.493v-.4H17zm1.281 2.281v-.2a1.2 1.2 0 0 0-1.2 1.2h.4a.8.8 0 0 1 .8-.8zm-1 1h-.2v17.776h.4V13.28zm0 17.776h-.2a1.2 1.2 0 0 0 1.2 1.2v-.4a.8.8 0 0 1-.8-.8zm1 1v.2h10.93v-.4H18.28zm10.93 0v.2a1.2 1.2 0 0 0 1.2-1.2h-.4a.8.8 0 0 1-.8.8zm1-1h.2V13.28h-.4v17.776zm0-17.776h.2a1.2 1.2 0 0 0-1.2-1.2v.4a.8.8 0 0 1 .8.8zm-1-1v-.2H18.28v.4h10.93z"/><defs><linearGradient id="a" x1="23.7" x2="24.304" y1="47.64" y2="-.064" gradientUnits="userSpaceOnUse"><stop stopColor="currentColor"/><stop offset="1" stopColor="currentColor"/></linearGradient><linearGradient id="b" x1="23.747" x2="23.747" y1="10" y2="37" gradientUnits="userSpaceOnUse"><stop stopColor="currentColor"/><stop offset="1" stopColor="currentColor"/></linearGradient></defs></svg>
